svgs/ntfy.svg

<svg xmlns="http://www.w3.org/2000/svg" viewBox="0 0 192 192"><path d="M17.404 156.988c.624-2.674 1.342-27.992 1.597-56.262.255-28.269.744-53.112 1.088-55.205.829-5.053 5.821-10.796 11.707-13.469 4.435-2.015 9.112-2.17 65.627-2.17 68.474 0 67.082-.167 73.988 8.884l3.407 4.466.354 44.403c.195 24.422.036 46.143-.353 48.269-.881 4.808-6.987 11.917-12.056 14.035-3.01 1.258-14.79 1.598-55.553 1.604l-51.733.007-19.604 5.149-19.604 5.15 1.135-4.862Zm26.257-15.479 9.453-2.936 52.285-.018c50.698-.017 52.358-.089 54.649-2.381 2.277-2.276 2.363-3.938 2.363-45.407 0-46.477.088-45.817-6.286-47.389-1.416-.35-29.072-.484-61.456-.297-56.714.325-58.942.422-60.557 2.632-1.383 1.891-1.676 10.741-1.676 50.513 0 26.521.398 48.219.886 48.219.487 0 5.14-1.321 10.339-2.936Zm57.307-26.603v-5.908h40.175v11.816h-40.175Zm-49.627-6.323c0-3.857.594-6.927 1.451-7.491.797-.526 5.981-3.397 11.52-6.38 5.539-2.984 10.014-5.908 9.945-6.499-.124-1.068-16.889-10.648-20.848-11.914-1.664-.533-2.068-2.037-2.068-7.705V61.55l12.702 6.744c6.987 3.71 15.494 8.309 18.906 10.222l6.203 3.478v12.61l-10.339 5.573a4268.596 4268.596 0 0 0-18.905 10.258l-8.567 4.684Z"/></svg>

<svg
    xmlns="http://www.w3.org/2000/svg"
    viewBox="0 0 192 192"
    id="vector">
    <g id="group">
        <path
            id="path_6"
            d="M 17.404 156.988 C 18.028 154.314 18.746 128.996 19.001 100.726 C 19.256 72.457 19.745 47.614 20.089 45.521 C 20.918 40.468 25.91 34.725 31.796 32.052 C 36.231 30.037 40.908 29.882 97.423 29.882 C 165.897 29.882 164.505 29.715 171.411 38.766 L 174.818 43.232 L 175.172 87.635 C 175.367 112.057 175.208 133.778 174.819 135.904 C 173.938 140.712 167.832 147.821 162.763 149.939 C 159.753 151.197 147.973 151.537 107.21 151.543 L 55.477 151.55 L 35.873 156.699 L 16.269 161.849 L 17.404 156.987 Z M 43.661 141.509 L 53.114 138.573 L 105.399 138.555 C 156.097 138.538 157.757 138.466 160.048 136.174 C 162.325 133.898 162.411 132.236 162.411 90.767 C 162.411 44.29 162.499 44.95 156.125 43.378 C 154.709 43.028 127.053 42.894 94.669 43.081 C 37.955 43.406 35.727 43.503 34.112 45.713 C 32.729 47.604 32.436 56.454 32.436 96.226 C 32.436 122.747 32.834 144.445 33.322 144.445 C 33.809 144.445 38.462 143.124 43.661 141.509 Z M 100.968 114.906 L 100.968 108.998 L 141.143 108.998 L 141.143 120.814 L 100.968 120.814 Z M 51.341 108.583 C 51.341 104.726 51.935 101.656 52.792 101.092 C 53.589 100.566 58.773 97.695 64.312 94.712 C 69.851 91.728 74.326 88.804 74.257 88.213 C 74.133 87.145 57.368 77.565 53.409 76.299 C 51.745 75.766 51.341 74.262 51.341 68.594 L 51.341 61.55 L 64.043 68.294 C 71.03 72.004 79.537 76.603 82.949 78.516 L 89.152 81.994 L 89.152 94.604 L 78.813 100.177 C 73.127 103.242 64.619 107.858 59.908 110.435 L 51.341 115.119 Z"
            fill="#000000"
            stroke-width="12"/>
    </g>
</svg>
